images/gift.svg

<svg width="41" height="39" viewBox="0 0 41 39" fill="none" xmlns="http://www.w3.org/2000/svg">
<path d="M2.5625 36.2143C2.5625 37.7551 3.70762 39 5.125 39H17.9375V25.0714H2.5625V36.2143ZM23.0625 39H35.875C37.2924 39 38.4375 37.7551 38.4375 36.2143V25.0714H23.0625V39ZM38.4375 11.1429H35.0662C35.5627 10.0895 35.875 8.92299 35.875 7.66071C35.875 3.43862 32.7119 0 28.8281 0C25.4969 0 23.3428 1.85424 20.5801 5.94576C17.8174 1.85424 15.6633 0 12.332 0C8.44824 0 5.28516 3.43862 5.28516 7.66071C5.28516 8.92299 5.58945 10.0895 6.09395 11.1429H2.5625C1.14512 11.1429 0 12.3877 0 13.9286V20.8929C0 21.6589 0.576562 22.2857 1.28125 22.2857H39.7188C40.4234 22.2857 41 21.6589 41 20.8929V13.9286C41 12.3877 39.8549 11.1429 38.4375 11.1429ZM12.324 11.1429C10.5543 11.1429 9.1209 9.5846 9.1209 7.66071C9.1209 5.73683 10.5543 4.17857 12.324 4.17857C13.9176 4.17857 15.0947 4.46585 19.2188 11.1429H12.324ZM28.8281 11.1429H21.9334C26.0494 4.48326 27.1945 4.17857 28.8281 4.17857C30.5979 4.17857 32.0312 5.73683 32.0312 7.66071C32.0312 9.5846 30.5979 11.1429 28.8281 11.1429Z" fill="#5333ED"/>
</svg>

<svg xmlns="http://www.w3.org/2000/svg" width="41" height="39" fill="none" xmlns:v="https://vecta.io/nano"><path d="M2.563 36.214C2.563 37.755 3.708 39 5.125 39h12.813V25.071H2.563v11.143zM23.063 39h12.813c1.417 0 2.563-1.245 2.563-2.786V25.071H23.063V39zm15.375-27.857h-3.371c.496-1.053.809-2.22.809-3.482C35.875 3.439 32.712 0 28.828 0c-3.331 0-5.485 1.854-8.248 5.946C17.817 1.854 15.663 0 12.332 0 8.448 0 5.285 3.439 5.285 7.661c0 1.262.304 2.429.809 3.482H2.563C1.145 11.143 0 12.388 0 13.929v6.964c0 .766.577 1.393 1.281 1.393h38.438c.705 0 1.281-.627 1.281-1.393v-6.964c0-1.541-1.145-2.786-2.562-2.786zm-26.114 0c-1.77 0-3.203-1.558-3.203-3.482s1.433-3.482 3.203-3.482c1.594 0 2.771.287 6.895 6.964h-6.895zm16.504 0h-6.895c4.116-6.66 5.261-6.964 6.895-6.964 1.77 0 3.203 1.558 3.203 3.482s-1.433 3.482-3.203 3.482z" fill="#5333ed"/></svg>
